assets/icons/utility/type_tool.svg

<svg xmlns="http://www.w3.org/2000/svg" width="52" height="52" viewBox="0 0 52 52"><path d="M50.37,47.59,32.74,4a2.41,2.41,0,0,0-2.2-1.47H20.11A2.21,2.21,0,0,0,18.06,4L1.9,47.59A1.43,1.43,0,0,0,3.22,49.5h6a2.36,2.36,0,0,0,2.06-1.62L16,34.81H35.68l5.14,13.07a2.36,2.36,0,0,0,2.06,1.62h6A1.52,1.52,0,0,0,50.37,47.59ZM19.08,26l5.73-14.69H26L32.3,26Z" fill="#fff"/></svg>

<?xml version="1.0"?><svg xmlns="http://www.w3.org/2000/svg" width="52" height="52" viewBox="0 0 52 52"><path d="m50.4 47.6l-17.7-43.6a2.4 2.4 0 0 0-2.2-1.5h-10.4a2.2 2.2 0 0 0-2 1.5l-16.2 43.6a1.4 1.4 0 0 0 1.3 1.9h6a2.4 2.4 0 0 0 2.1-1.6l4.7-13.1h19.7l5.1 13.1a2.4 2.4 0 0 0 2.1 1.6h6a1.5 1.5 0 0 0 1.5-1.9z m-31.3-21.6l5.7-14.7h1.2l6.3 14.7z" fill="#fff"></path></svg>
